symbols/web/sd_card/materialsymbolsrounded/sd_card_wght700grad200fill1_20px.svg

<svg xmlns="http://www.w3.org/2000/svg" height="20" width="20"><path d="M8.333 9.479q.355 0 .615-.271.26-.27.26-.604V6.875q0-.333-.26-.604Q8.688 6 8.333 6 8 6 7.729 6.271q-.271.271-.271.604v1.729q0 .334.271.604.271.271.604.271Zm2.417 0q.354 0 .615-.271.26-.27.26-.604V6.875q0-.333-.26-.604Q11.104 6 10.75 6q-.333 0-.604.271-.271.271-.271.604v1.729q0 .334.271.604.271.271.604.271Zm2.396 0q.333 0 .604-.271.271-.27.271-.604V6.875q0-.333-.271-.604Q13.479 6 13.146 6q-.354 0-.615.271-.26.271-.26.604v1.729q0 .334.26.604.261.271.615.271Zm-7.854 9.813q-1.209 0-2.063-.844-.854-.844-.854-2.073V7.438q0-.584.24-1.136.239-.552.656-.948l3.75-3.771q.417-.416.969-.645.552-.23 1.135-.23h5.583q1.209 0 2.063.844.854.844.854 2.073v12.75q0 1.229-.854 2.073-.854.844-2.063.844Z"/></svg>

<svg xmlns="http://www.w3.org/2000/svg" height="20" width="20"><path d="M8.333 9.479Q8.688 9.479 8.948 9.208Q9.208 8.938 9.208 8.604V6.875Q9.208 6.542 8.948 6.271Q8.688 6 8.333 6Q8 6 7.729 6.271Q7.458 6.542 7.458 6.875V8.604Q7.458 8.938 7.729 9.208Q8 9.479 8.333 9.479ZM10.75 9.479Q11.104 9.479 11.365 9.208Q11.625 8.938 11.625 8.604V6.875Q11.625 6.542 11.365 6.271Q11.104 6 10.75 6Q10.417 6 10.146 6.271Q9.875 6.542 9.875 6.875V8.604Q9.875 8.938 10.146 9.208Q10.417 9.479 10.75 9.479ZM13.146 9.479Q13.479 9.479 13.75 9.208Q14.021 8.938 14.021 8.604V6.875Q14.021 6.542 13.75 6.271Q13.479 6 13.146 6Q12.792 6 12.531 6.271Q12.271 6.542 12.271 6.875V8.604Q12.271 8.938 12.531 9.208Q12.792 9.479 13.146 9.479ZM5.292 19.292Q4.083 19.292 3.229 18.448Q2.375 17.604 2.375 16.375V7.438Q2.375 6.854 2.615 6.302Q2.854 5.75 3.271 5.354L7.021 1.583Q7.438 1.167 7.99 0.938Q8.542 0.708 9.125 0.708H14.708Q15.917 0.708 16.771 1.552Q17.625 2.396 17.625 3.625V16.375Q17.625 17.604 16.771 18.448Q15.917 19.292 14.708 19.292Z"/></svg>
